X:1
T:The Three Maids
M:4/4
L:1/4
K:G
 D G G G3| F E D B,2| D2 E/2F/2 G3| G G G d3| d e B d3| B d B G3| F/2F/2 E D B,2|\
 D/2D/2 D3/2 E/2 G| A G3|||
